public/arrows.svg

<svg width="171" height="141" viewBox="0 0 171 141" fill="none" xmlns="http://www.w3.org/2000/svg">
<path d="M44.1656 42.7401L0 0L27.745 41.2316L64.5497 63.3559L85.5 89L105.318 63.3559L143.255 40.226L171 0L126.834 42.7401L99.6556 58.3277L85.5 71.904L66.2483 55.3107L44.1656 42.7401Z" fill="white"/>
<path d="M45.1325 94.7401L2 52L29.096 93.2316L65.0397 115.356L85.5 141L104.854 115.356L141.904 92.226L169 52L125.868 94.7401L99.3245 110.328L85.5 123.904L66.6987 107.311L45.1325 94.7401Z" fill="white"/>
</svg>

<svg xmlns="http://www.w3.org/2000/svg" width="171" height="141" fill="none"><path fill="#fff" d="M44.166 42.74 0 0l27.745 41.232L64.55 63.356 85.5 89l19.818-25.644 37.937-23.13L171 0l-44.166 42.74-27.178 15.588L85.5 71.904 66.248 55.311z"/><path fill="#fff" d="M45.133 94.74 2 52l27.096 41.232 35.944 22.124L85.5 141l19.354-25.644 37.05-23.13L169 52l-43.132 42.74-26.543 15.588L85.5 123.904l-18.801-16.593z"/></svg>
